!!!!SEGMENT: Lhe2009-In_te_Domine_speravi.krn
!!!id: Lhe2009
!!!AGN: Motet
!!!voices: 4
!!!COM: Jean Lhéritier
!!!OTL: In te, Domine, speravi
**kern	**kern	**kern	**kern
*part4	*part3	*part2	*part1
*staff4	*staff3	*staff2	*staff1
*I"Bassus	*I"Tenor	*I"Altus	*I"Superius
*I'B	*I'T	*I'A	*I'S
*clefF4	*clefGv2	*clefGv2	*clefG2
*k[]	*k[]	*k[]	*k[]
*C:	*C:	*C:	*C:
*M2/1	*M2/1	*M2/1	*M2/1
*met(C|)	*met(C|)	*met(C|)	*met(C|)
!!Section: Prima pars: In te, Domine, speravi
!!!OMD: Prima pars: In te, Domine, speravi
0r	0r	0r	1g
.	.	.	1a
=1	=1	=1	=1
0r	0r	0r	2.cc
.	.	.	4cc
.	.	.	2cc
.	.	.	2cc
=2	=2	=2	=2
0r	1G	0r	1dd
.	1A	.	2.cc
.	.	.	8bL
.	.	.	8aJ
=3	=3	=3	=3
0r	2.c	0r	4g
.	.	.	4f
.	.	.	4e
.	4c	.	4d
.	2c	.	2e
.	2c	.	2ee
=4	=4	=4	=4
0r	1d	0r	2ff
.	.	.	2dd
.	2c	.	4ee
.	.	.	4dd
.	2e	.	4cc
.	.	.	4b
=5	=5	=5	=5
0r	2f	0r	2a
.	2d	.	2.dd
.	2e	.	.
.	.	.	4b
.	2g	.	2ee
=6	=6	=6	=6
0r	4f	1r	2dd
.	4e	.	.
.	4d	.	2.cc
.	4c	.	.
.	1d	1G	.
.	.	.	8bL
.	.	.	8aJ
.	.	.	2b
=7	=7	=7	=7
0r	0c	1A	1cc
.	.	2.c	2r
.	.	.	2g
.	.	4c	.
=8	=8	=8	=8
1r	0r	2c	2a
.	.	2d	2b
1C	.	2c	1cc
.	.	2e	.
=9	=9	=9	=9
1D	0r	2f	0r
.	.	2d	.
2.F	.	2c	.
.	.	[2f	.
4F	.	.	.
=10	=10	=10	=10
2F	0r	4f]	0r
.	.	8eL	.
.	.	8dJ	.
2G	.	2e	.
2F	.	4A	.
.	.	4B	.
[2A	.	4c	.
.	.	4d	.
=11	=11	=11	=11
4A]	0r	4e	0r
4B	.	4d	.
4c	.	4e	.
4A	.	4c	.
4B	.	4d	.
4A	.	4c	.
4G	.	[2f	.
4F	.	.	.
=12	=12	=12	=12
1G	1r	4f]	1r
.	.	8eL	.
.	.	8dJ	.
.	.	2e	.
1F	1c	1f	[1a
=13	=13	=13	=13
1F	1c	1.f	1a]
1F	1A	.	1a
.	.	2f	.
=14	=14	=14	=14
1D	1A	1f	1dd
1D	[1d	1f	1dd
=15	=15	=15	=15
0G	1d]	2.g	1.b
.	.	8fL	.
.	.	8eJ	.
.	1B	1d	.
.	.	.	2a
=16	=16	=16	=16
1E	0c	1e	1g
[1F	.	1A	1a
=17	=17	=17	=17
1F]	0d	1f	1a
1G	.	2d	1b
.	.	[2g	.
=18	=18	=18	=18
[0C	1c	4g]	1cc
.	.	4f	.
.	.	4e	.
.	.	4d	.
.	1G	1e	1r
=19	=19	=19	=19
0C]	2.c	1r	1g
.	4c	.	.
.	1A	1c	2.cc
.	.	.	4cc
=20	=20	=20	=20
0r	2d	2.f	1a
.	2d	.	.
.	.	4f	.
.	2.B	1d	2dd
.	.	.	2dd
.	4A	.	.
=21	=21	=21	=21
1r	1G	2g	2.b
.	.	2g	.
.	.	.	4a
1C	1r	2.e	2g
.	.	.	[2cc
.	.	4d	.
=22	=22	=22	=22
2.F	1c	2c	2cc]
.	.	2.f	1a
4F	.	.	.
1D	2.f	.	.
.	.	4e	.
.	.	4d	[2dd
.	4f	4c	.
=23	=23	=23	=23
2G	1d	1B	4dd]
.	.	.	4cc
2G	.	.	4b
.	.	.	4a
2.E	2g	2r	1g
.	2g	2G	.
4D	.	.	.
=24	=24	=24	=24
1C	2.e	2.c	2r
.	.	.	2g
.	4d	4c	.
2r	2c	1A	2.cc
[2F	2c	.	.
.	.	.	4cc
=25	=25	=25	=25
2F]	2.f	2d	1a
1D	.	2d	.
.	4f	.	.
.	1d	2.B	2dd
[2G	.	.	2dd
.	.	4A	.
=26	=26	=26	=26
2G]	2g	1G	2.b
1E	2g	.	.
.	.	.	4a
.	2.e	2r	2g
4C	.	[2g	2ee
4D	4d	.	.
=27	=27	=27	=27
4E	4c	2g]	2ee
4F	4d	.	.
1G	4e	4f	4dd
.	4f	4e	4cc
.	4g	4d	4b
.	4e	4c	4a
2D	[2f	4B-X	[2dd
.	.	4A	.
=28	=28	=28	=28
2E	4f]	2G	4dd]
.	4c	.	4cc
2C	2e	2.g	1cc
1G	1d	.	.
.	.	4f	.
.	.	2d	2b
=29	=29	=29	=29
[0C	[0c	1e	0cc
.	.	2r	.
.	.	2g	.
=30	=30	=30	=30
0C_	0c_	2a	2r
.	.	2g	2g
.	.	2.e	2a
.	.	.	2g
.	.	4f	.
=31	=31	=31	=31
0C]	0c]	4g	2.e
.	.	4f	.
.	.	4e	.
.	.	4d	4f
.	.	1c	4g
.	.	.	4f
.	.	.	4e
.	.	.	4d
=32	=32	=32	=32
0r	0r	2e	2c
.	.	2e	2cc
.	.	2d	2b
.	.	2c	2a
=33	=33	=33	=33
0r	0r	2B	2b
.	.	2.c	2.a
.	.	4B	4g
.	.	4A	[2g
.	.	4G	.
=34	=34	=34	=34
1r	2r	1A	2g]
.	2c	.	2f#i
2r	2.e	[1G	[1g
2C	.	.	.
.	4f	.	.
=35	=35	=35	=35
2.E	2g	1G]	1g]
.	2G	.	.
4F	.	.	.
2G	2.B	1r	1r
2A	.	.	.
.	4c	.	.
=36	=36	=36	=36
2G	4d	0r	0r
.	4e	.	.
2.A	2.f	.	.
4G	4e	.	.
4F	[2e	.	.
4E	.	.	.
=37	=37	=37	=37
1F	2e]	1r	0r
.	2d	.	.
[1E	[1e	2r	.
.	.	2G	.
=38	=38	=38	=38
0E]	0e]	2B	2r
.	.	2c	2g
.	.	2B	2b
.	.	4e	2cc
.	.	4f	.
=39	=39	=39	=39
0r	0r	4g	4b
.	.	4a	4cc
.	.	4g	4dd
.	.	4e	4ee
.	.	4f	4dd
.	.	4e	4cc
.	.	[2a	[2ff
=40	=40	=40	=40
0r	0r	4a]	4ff]
.	.	4e	4ee
.	.	2g	1ee
.	.	1f	.
.	.	.	2dd
=41	=41	=41	=41
1.C	1.g	1e	1ee
.	.	[1e	[1ee
2C	2g	.	.
=42	=42	=42	=42
1C	1g	2e]	2ee]
.	.	2e	2ee
1C	1c	1e	2ee
.	.	.	2ee
=43	=43	=43	=43
1G	1d	1g	1dd
1G	1e	2g	1b
.	.	2g	.
=44	=44	=44	=44
1A	1c	1e	1.cc
1A	1c	1f	.
.	.	.	4b
.	.	.	4a
=45	=45	=45	=45
1G	1d	4g	0b
.	.	4f	.
.	.	4e	.
.	.	4d	.
2E	1g	4e	.
.	.	4d	.
2G	.	4c	.
.	.	4B	.
=46	=46	=46	=46
4F	1a	4A	1r
4E	.	4G	.
4D	.	1c	.
4C	.	.	.
1D	2f	.	1dd
.	2f	2B	.
=47	=47	=47	=47
1C	2e	2c	1ee
.	2c	2g	.
1r	2.f	1a	2cc
.	.	.	2cc
.	4e	.	.
=48	=48	=48	=48
1G	1d	2g	2b
.	.	2g	2g
1A	2c	1e	2.cc
.	4F	.	.
.	4G	.	4b
=49	=49	=49	=49
2F	4A	1r	1a
.	4B	.	.
2F	4c	.	.
.	4d	.	.
2E	4e	1g	1g
.	4d	.	.
2C	2e	.	.
=50	=50	=50	=50
2.F	2d	1a	0r
.	1c	.	.
4E	.	.	.
1D	.	2f	.
.	2B	2f	.
=51	=51	=51	=51
1C	1c	2e	1cc
.	.	2c	.
1r	2r	2.f	2cc
.	[2f	.	[2dd
.	.	4e	.
=52	=52	=52	=52
0r	2f]	1d	2dd]
.	2f	.	2dd
.	1g	[1c	2ee
.	.	.	2ee
=53	=53	=53	=53
0r	2g	1c]	2.cc
.	1a	.	.
.	.	.	4dd
.	.	2r	4ee
.	.	.	4dd
.	2a	[2c	4cc
.	.	.	4b
=54	=54	=54	=54
1F	2.f	2c]	1a
.	.	2c	.
.	4e	.	.
2F	4f	2d	1r
.	4e	.	.
[2G	4d	2d	.
.	4c	.	.
=55	=55	=55	=55
2G]	4B	2e	2r
.	4A	.	.
2G	2G	2e	2b
2A	2r	1c	2cc
2A	[2f	.	2a
=56	=56	=56	=56
1F	2f]	2r	1cc
.	4e	4A	.
.	4d	4B	.
2r	1e	4c	1g
.	.	4d	.
2c	.	4e	.
.	.	4f	.
=57	=57	=57	=57
2B	2d	2g	1r
2G	2B	2g	.
1A	2c	2.e	2r
.	2A	.	2cc
.	.	4f	.
=58	=58	=58	=58
1E	2G	1g	2b
.	2E	.	2g
2r	1F	1c	1a
2A	.	.	.
=59	=59	=59	=59
2G	2C	1r	1e
2E	2c	.	.
1F	2A	2r	1r
.	[2c	2f	.
=60	=60	=60	=60
1C	4c]	2e	2r
.	4d	.	.
.	2e	2c	2ee
2r	2f	1d	2dd
2G	2g	.	2b
=61	=61	=61	=61
2A	2f	1A	2cc
1c	2.e	.	1ee
.	.	2r	.
.	4c	.	.
4B	[2g	2c	4dd
4A	.	.	4cc
=62	=62	=62	=62
2G	2g]	2d	2b
2E	2g	2e	4g
.	.	.	4a
2G	2g	2d	4b
.	.	.	4cc
2D	[2f	[2a	[2dd
=63	=63	=63	=63
1A	4f]	2a]	4dd]
.	4e	.	4cc
.	4d	2f	1cc
.	4c	.	.
1G	1d	1g	.
.	.	.	2b
=64	=64	=64	=64
1C	0c	2e	[0cc
.	.	2.g	.
2r	.	.	.
.	.	4f	.
2C	.	4e	.
.	.	4d	.
=65	=65	=65	=65
2.F	2r	1c	0cc]
.	2A	.	.
4G	.	.	.
2A	2.c	1r	.
2A	.	.	.
.	4d	.	.
=66	=66	=66	=66
2E	2e	0r	0r
2E	2e	.	.
1G	2B	.	.
.	2B	.	.
=67	=67	=67	=67
1r	1d	0r	0r
2.D	1r	.	.
4D	.	.	.
=68	=68	=68	=68
2F	2.A	0r	0r
2F	.	.	.
.	4B	.	.
2C	2c	.	.
[2F	2c	.	.
=69	=69	=69	=69
4F]	4A	0r	0r
4G	4B	.	.
4A	4c	.	.
4B	4d	.	.
4c	4e	.	.
4B	4f	.	.
4A	4g	.	.
4G	4e	.	.
=70	=70	=70	=70
2A	2f	0r	0r
2G	1e	.	.
1F	.	.	.
.	2d	.	.
=71	=71	=71	=71
1E	1e	0r	2.ee
.	.	.	4ee
1r	1r	.	2ee
.	.	.	2dd
=72	=72	=72	=72
0r	0r	2.e	2.cc
.	.	4e	8bL
.	.	.	8aJ
.	.	2e	2g
.	.	2d	2a
=73	=73	=73	=73
0r	0r	2.c	4e
.	.	.	4f
.	.	.	4g
.	.	8BL	4a
.	.	8AJ	.
.	.	1G	2b
.	.	.	4g
.	.	.	4a
=74	=74	=74	=74
0r	0r	2.g	4b
.	.	.	4cc
.	.	.	2dd
.	.	4f	.
.	.	2e	2ee
.	.	2d	[2ff
=75	=75	=75	=75
0r	0r	2e	4ff]
.	.	.	4ee
.	.	2g	1ee
.	.	1f	.
.	.	.	2dd
=76	=76	=76	=76
0C	1.c	1e	1ee
.	.	[1g	[1ee
.	2c	.	.
=77	=77	=77	=77
1C	1c	2g]	2ee]
.	.	2g	2ee
1C	1c	1g	1ee
=78	=78	=78	=78
1G	1d	1g	1dd
1G	1e	1g	1b
=79	=79	=79	=79
1F	1f	1a	1cc
1G	1d	2.g	1b
.	.	4f	.
=80	=80	=80	=80
0A	1c	4e	1.cc
.	.	4d	.
.	.	1g	.
.	2r	.	.
.	2c	2f#i	4b
.	.	.	4a
=81	=81	=81	=81
1G	2d	1g	0b
.	2B	.	.
2r	1d	2f	.
2G	.	2g	.
=82	=82	=82	=82
2A	2c	2e	1r
2F	2A	2.f	.
1A	2c	.	2r
.	.	4e	.
.	2A	2c	2cc
=83	=83	=83	=83
1G	1B	2r	2dd
.	.	2g	2b
1r	1A	2a	1cc
.	.	2f	.
=84	=84	=84	=84
2r	2r	1g	2b
2E	2e	.	2g
2F	2c	2f	2a
2D	2d	[2F	2f
=85	=85	=85	=85
1F	4A	4F]	1a
.	4B	4G	.
.	4c	4A	.
.	4d	4B	.
2E	4e	4c	[1g
.	4f	4d	.
2C	2g	4e	.
.	.	4f	.
=86	=86	=86	=86
2.c	2e	2g	1g]
.	2c	2e	.
4B	.	.	.
2A	2f	2c	1r
2G	2e	2g	.
=87	=87	=87	=87
2F	2d	1r	2r
2E	2c	.	2cc
1D	1f	2r	1dd
.	.	2f	.
=88	=88	=88	=88
1C	1e	1g	2.ee
.	.	.	4dd
1r	1r	2.a	2cc
.	.	.	2b
.	.	4g	.
=89	=89	=89	=89
1F	1r	2f	1a
.	.	2e	.
1G	2r	1d	1g
.	2g	.	.
=90	=90	=90	=90
2.A	2f	1c	1r
.	2e	.	.
4G	.	.	.
2F	2d	1r	2r
2E	2c	.	2cc
=91	=91	=91	=91
1D	1f	2r	1dd
.	.	2f	.
1C	1e	1g	2.ee
.	.	.	4dd
=92	=92	=92	=92
1r	0r	2.a	2cc
.	.	.	2b
.	.	4g	.
1F	.	2f	1a
.	.	2e	.
=93	=93	=93	=93
1G	2r	1d	1g
.	2g	.	.
2.A	2f	2.c	1r
.	2e	.	.
4G	.	4B	.
=94	=94	=94	=94
2F	2d	2A	0r
2E	2.c	1G	.
1D	.	.	.
.	4B	.	.
.	4B	2F	.
.	4A	.	.
=95	=95	=95	=95
[0Cl	[0cl	[0Gl	1.cc
.	.	.	2dd
=96	=96	=96	=96
0C_	0c_	0G_	0ee
=97	=97	=97	=97
00C]	00c]	00G]	00ee
=98||	=98||	=98||	=98||
*M2/1	*M2/1	*M2/1	*M2/1
*met(C|)	*met(C|)	*met(C|)	*met(C|)
!!Section: Secunda pars: Ego autem
!!!OMD: Secunda pars: Ego autem
0r	0r	0r	1cc
.	.	.	1cc
=99	=99	=99	=99
0r	0r	1r	1dd
.	.	1c	1ee
=100	=100	=100	=100
0r	0r	1c	2r
.	.	.	2cc
.	.	1d	2b
.	.	.	2a
=101	=101	=101	=101
0r	0r	1e	2g
.	.	.	4c
.	.	.	4d
.	.	2r	4e
.	.	.	4f
.	.	2c	4g
.	.	.	4a
=102	=102	=102	=102
0r	0r	2B	4b
.	.	.	4g
.	.	2A	2cc
.	.	2G	2b
.	.	[2c	[2a
=103	=103	=103	=103
0r	0r	4c]	4a]
.	.	4B	4g
.	.	4A	1g
.	.	4G	.
.	.	1A	.
.	.	.	2f#i
=104	=104	=104	=104
0r	0r	1G	2g
.	.	.	2dd
.	.	2r	2ee
.	.	2d	2dd
=105	=105	=105	=105
0r	0r	2e	1b
.	.	2d	.
.	.	1B	2r
.	.	.	2dd
=106	=106	=106	=106
0r	0r	2r	2dd
.	.	2d	2dd
.	.	2d	1a
.	.	2d	.
=107	=107	=107	=107
0r	0r	2A	2.cc
.	.	2a	.
.	.	.	4cc
.	.	2a	2cc
.	.	2g	2b
=108	=108	=108	=108
0r	0r	2f	2cc
.	.	2f	2dd
.	.	2e	2ee
.	.	[2f	[2dd
=109	=109	=109	=109
0r	0r	4f]	4dd]
.	.	4e	4cc
.	.	4d	1cc
.	.	4c	.
.	.	1d	.
.	.	.	2b
=110	=110	=110	=110
1F	1f	0c	0cc
2F	2f	.	.
2F	2f	.	.
=111	=111	=111	=111
1G	1e	0r	0r
1G	1d	.	.
=112	=112	=112	=112
0A	1c	0r	0r
.	2r	.	.
.	2A	.	.
=113	=113	=113	=113
2r	2.c	0r	0r
2A	.	.	.
.	4d	.	.
2A	2e	.	.
2A	4c	.	.
.	4d	.	.
=114	=114	=114	=114
2G	4e	0r	0r
.	4f	.	.
2.B-i	2.g	.	.
4A	4f	.	.
4G	[2f	.	.
4F	.	.	.
=115	=115	=115	=115
1G	2f]	0r	0r
.	2e	.	.
2F	1f	.	.
2F	.	.	.
=116	=116	=116	=116
2.A	2r	0r	0r
.	2F	.	.
4B	.	.	.
1c	2.A	.	.
.	4B	.	.
=117	=117	=117	=117
2r	1c	0r	0r
2C	.	.	.
2F	2r	.	.
2G	2G	.	.
=118	=118	=118	=118
2A	2c	0r	0r
2F	2d	.	.
2G	2e	.	.
2A	2c	.	.
=119	=119	=119	=119
2.G	2d	0r	0r
.	2e	.	.
8FL	.	.	.
8EJ	.	.	.
4D	2.f	.	.
4E	.	.	.
4F	.	.	.
4G	4f	.	.
=120	=120	=120	=120
1A	2.e	0r	0r
.	8dL	.	.
.	8cJ	.	.
2G	4B	.	.
.	4A	.	.
2F	[2d	.	.
=121	=121	=121	=121
2E	4d]	0r	0r
.	4c	.	.
2F	2.c	.	.
1D	.	.	.
.	8BL	.	.
.	8AJ	.	.
.	2B	.	.
=122	=122	=122	=122
0C	0c	[0g	[0cc
=123	=123	=123	=123
1.C	1.e	1g]	1cc]
.	.	1g	1cc
2C	2e	.	.
=124	=124	=124	=124
1G	1d	1g	1b
1G	1d	1g	1b
=125	=125	=125	=125
2E	1c	2g	0cc
1F	.	1a	.
.	2A	.	.
4E	[2c	4g	.
4D	.	4f	.
=126	=126	=126	=126
0C	2c]	1e	2r
.	4B	.	2ee
.	4A	.	.
.	1G	2r	2cc
.	.	2g	[2ee
=127	=127	=127	=127
1r	1c	2f	4ee]
.	.	.	4dd
.	.	2g	4cc
.	.	.	4b
1F	2d	4f	4a
.	.	4e	4g
.	2d	4d	2a
.	.	4c	.
=128	=128	=128	=128
2G	1e	4B-i	1g
.	.	4A	.
2G	.	2B-i	.
1A	1c	2A	1cc
.	.	2F	.
=129	=129	=129	=129
1F	1r	1f	2dd
.	.	.	2dd
1r	1c	2g	1ee
.	.	2g	.
=130	=130	=130	=130
1F	2A	1a	1cc
.	2A	.	.
2D	1d	1f	1r
2D	.	.	.
=131	=131	=131	=131
1G	1B	1r	1b
1E	2r	1e	2g
.	2c	.	2g
=132	=132	=132	=132
2r	2c	2c	1cc
2F	2A	2c	.
2F	2.d	1f	1a
2D	.	.	.
.	4c	.	.
=133	=133	=133	=133
0G	4B	1d	2r
.	4A	.	.
.	2G	.	2b
.	1g	2r	2b
.	.	2e	2g
=134	=134	=134	=134
1A	2e	2e	1cc
.	1a	2c	.
2.F	.	2.f	2r
.	4g	.	[2c
4G	4f	8eL	.
.	.	8dJ	.
=135	=135	=135	=135
4A	1.e	2.c	4c]
4B	.	.	4d
1c	.	.	4e
.	.	4d	4f
.	.	4e	4g
.	.	4f	4a
4B	2c	[2g	4b
4A	.	.	4cc
=136	=136	=136	=136
2G	2d	1g]	4b
.	.	.	4g
2C	2e	.	2.cc
1G	1d	1g	.
.	.	.	8bL
.	.	.	8aJ
.	.	.	2b
=137	=137	=137	=137
0C	0c	1e	0cc
.	.	2r	.
.	.	2a	.
=138	=138	=138	=138
0r	1r	2g	2r
.	.	2e	2ee
.	2r	1g	2dd
.	2e	.	2b
=139	=139	=139	=139
2r	2d	1d	1dd
2G	2B	.	.
2F	1d	1r	2a
2D	.	.	2dd
=140	=140	=140	=140
1F	2A	1r	2cc
.	2d	.	2a
1C	2c	2r	1cc
.	2A	2a	.
=141	=141	=141	=141
2r	1c	2g	2g
2A	.	2e	2cc
2G	2G	1g	2b
2E	2c	.	4g
.	.	.	4a
=142	=142	=142	=142
1G	2.B	2d	4b
.	.	.	4cc
.	.	2g	1dd
.	4c	.	.
1D	2d	2f	.
.	2A	2d	4cc
.	.	.	4b
=143	=143	=143	=143
2r	2d	1f	2a
1A	2c	.	1cc
.	2.e	2.c	.
4G	.	.	4b
4F	4f	4d	4a
=144	=144	=144	=144
2E	2.g	4e	2g
.	.	4f	.
2C	.	2.g	2cc
.	8fL	.	.
.	8eJ	.	.
2G	2.d	.	2b
.	.	4f	.
2F	.	2d	[2a
.	4c	.	.
=145	=145	=145	=145
2G	2B	2e	4a]
.	.	.	4g
2E	4A	2c	1g
.	4G	.	.
1D	1A	1d	.
.	.	.	2f#i
=146	=146	=146	=146
1G	[0G	0d	[0g
1r	.	.	.
=147	=147	=147	=147
1G	0G]	1r	1g]
2.E	.	1g	1r
4F	.	.	.
=148	=148	=148	=148
1G	0r	2.e	0r
.	.	4f	.
2r	.	1g	.
[2C	.	.	.
=149	=149	=149	=149
2C]	0r	2r	0r
2C	.	1c	.
2.E	.	.	.
.	.	2c	.
4F	.	.	.
=150	=150	=150	=150
2G	0r	2.e	0r
2A	.	.	.
.	.	4f	.
2G	.	2g	.
2F	.	2a	.
=151	=151	=151	=151
2E	0r	2g	0r
1A	.	2f	.
.	.	4e	.
.	.	4f	.
2G	.	4g	.
.	.	4e	.
=152	=152	=152	=152
2A	0r	2f	0r
2E	.	1e	.
1F	.	.	.
.	.	2d	.
=153	=153	=153	=153
1E	1g	1e	1ee
1r	2a	1r	2cc
.	2g	.	2dd
=154	=154	=154	=154
0r	2e	0r	2ee
.	1f	.	2cc
.	.	.	2dd
.	2d	.	[2ff
=155	=155	=155	=155
0r	2e	0r	4ff]
.	.	.	4ee
.	2g	.	1ee
.	1f	.	.
.	.	.	2dd
=156	=156	=156	=156
1A	2e	1c	1ee
.	2e	.	.
2A	2e	2c	1cc
2A	2e	2c	.
=157	=157	=157	=157
1A	2e	1c	2cc
.	1c	.	2cc
[1F	.	[1f	1cc
.	2c	.	.
=158	=158	=158	=158
2F]	1c	2f]	1.a
2F	.	2f	.
1F	2r	2f	.
.	2c	2f	2a
=159	=159	=159	=159
1A	2c	2f	2a
.	2c	2f	2a
2G	2d	2g	2b
2F	2f	[2a	2a
=160	=160	=160	=160
1G	2e	4a]	2b
.	.	4g	.
.	2.d	1g	2g
1A	.	.	1cc
.	8cL	.	.
.	8BJ	.	.
.	2c	2f#i	.
=161	=161	=161	=161
1G	4d	0g	0b
.	4c	.	.
.	4B	.	.
.	4A	.	.
1E	4G	.	.
.	4E	.	.
.	2e	.	.
=162	=162	=162	=162
2.F	2d	0r	0r
.	2.c	.	.
4E	.	.	.
1D	.	.	.
.	8BL	.	.
.	8AJ	.	.
.	2B	.	.
=163	=163	=163	=163
1C	1c	1e	1ee
1r	1r	2.f	2dd
.	.	.	[2cc
.	.	4e	.
=164	=164	=164	=164
1G	2r	1d	2cc]
.	2g	.	2b
2.A	2f	1c	1cc
.	[2e	.	.
4G	.	.	.
=165	=165	=165	=165
1F	4e]	1r	1r
.	8dL	.	.
.	8cJ	.	.
.	2d	.	.
1E	1e	1g	2r
.	.	.	2gg
=166	=166	=166	=166
0r	0r	2.a	2ff
.	.	.	2.ee
.	.	4g	.
.	.	1f	.
.	.	.	8ddL
.	.	.	8ccJ
.	.	.	2dd
=167	=167	=167	=167
1E	2r	[0e	[0ee
.	2B	.	.
2A	2c	.	.
2G	2B	.	.
=168	=168	=168	=168
1A	1c	1e]	1ee]
1E	1B	2r	2r
.	.	2g	2b
=169	=169	=169	=169
0r	0r	2a	2cc
.	.	2g	2b
.	.	1a	1cc
=170	=170	=170	=170
2.G	1r	1g	2.b
4G	.	.	4cc
2D	2.d	1r	1dd
2D	.	.	.
.	4d	.	.
=171	=171	=171	=171
1F	2A	2.a	1r
.	2A	.	.
.	.	4a	.
1r	1c	2e	2.ee
.	.	2e	.
.	.	.	4ee
=172	=172	=172	=172
2.G	2r	1g	2b
.	2G	.	2b
4G	.	.	.
2D	2A	2r	2dd
2D	4F	[2a	2dd
.	4G	.	.
=173	=173	=173	=173
4F	4A	2a]	2.cc
4G	4B	.	.
4A	4c	4g	.
4B	4d	4f	8bL
.	.	.	8aJ
2c	4e	4e	2g
.	4f	4d	.
2C	4g	4c	2ee
.	4e	4B	.
=174	=174	=174	=174
2D	4f	2A	2dd
.	4e	.	.
2E	4d	2g	1cc
.	4c	.	.
2F	1d	2f	.
2G	.	2d	2b
=175	=175	=175	=175
[0C	[0c	1e	0cc
.	.	2r	.
.	.	2e	.
=176	=176	=176	=176
0C]	0c]	2g	2r
.	.	2g	2cc
.	.	2.e	2ee
.	.	.	2ee
.	.	4f	.
=177	=177	=177	=177
0r	0r	4g	2dd
.	.	4e	.
.	.	2.a	2.cc
.	.	4g	4b
.	.	[2g	4a
.	.	.	4g
=178	=178	=178	=178
1r	1d	2g]	1a
.	.	2f#i	.
1G	2e	1g	1g
.	2e	.	.
=179	=179	=179	=179
2A	2c	0r	0r
2A	2.f	.	.
1F	.	.	.
.	4e	.	.
.	4d	.	.
.	4c	.	.
=180	=180	=180	=180
1G	2B	0r	0r
.	2.e	.	.
2E	.	.	.
.	4d	.	.
2F	[2c	.	.
=181	=181	=181	=181
1D	2c]	1r	1r
.	2B	.	.
2.C	1c	2r	2.e
.	.	[2c	.
4D	.	.	4f
=182	=182	=182	=182
2E	2r	4c]	2g
.	.	4d	.
2C	2.G	2e	2e
2.E	.	2c	2.g
.	4A	.	.
.	2B	[2e	.
4F	.	.	4a
=183	=183	=183	=183
2G	2G	4e]	2b
.	.	4f	.
2E	2.B	2g	2g
2.G	.	2e	2.b
.	4c	.	.
.	2d	[2g	.
4A	.	.	4cc
=184	=184	=184	=184
2B	2G	4g]	2dd
.	.	4a	.
2G	2g	2b	2b
2c	2e	2g	2ee
2B	2g	2d	[2dd
=185	=185	=185	=185
2c	2.e	2e	4dd]
.	.	.	4cc
2A	.	2f	1cc
.	8dL	.	.
.	8cJ	.	.
1G	1d	1g	.
.	.	.	2b
=186	=186	=186	=186
*M3/1	*M3/1	*M3/1	*M3/1
*met(C|3)	*met(C|3)	*met(C|3)	*met(C|3)
0C	0c	0g	0.cc
1r	1r	1r	.
=187	=187	=187	=187
1G	1e	0.r	1%3r
1G	1e	.	.
1G	1e	.	.
=188	=188	=188	=188
0A	2f	0.r	1%3r
.	2e	.	.
.	2d	.	.
.	2c	.	.
1G	2B	.	.
.	2G	.	.
=189	=189	=189	=189
1E	0c	0.r	1%3r
1F	.	.	.
1D	1B	.	.
=190	=190	=190	=190
0C	0.c	1g	1ee
.	.	1g	1ee
1r	.	1g	1ee
=191	=191	=191	=191
0.r	1%3r	0a	2ff
.	.	.	2ee
.	.	.	2dd
.	.	.	2cc
.	.	1g	2b
.	.	.	2g
=192	=192	=192	=192
1r	0.r	1e	0cc
1r	.	1f	.
1G	.	1d	1b
=193	=193	=193	=193
1.A	1e	1c	0cc
.	1c	1r	.
2G	.	.	.
1F	1d	1a	1r
=194	=194	=194	=194
0E	0e	1.g	1ee
.	.	.	1cc
.	.	2e	.
1r	1r	1f	1dd
=195	=195	=195	=195
0.r	1%3r	1e	1ee
.	.	1.f	1cc
.	.	.	1dd
.	.	2e	.
=196	=196	=196	=196
0.r	1%3r	1c	1ee
.	.	1d	1.ff
.	.	1e	.
.	.	.	2ee
=197	=197	=197	=197
0.r	1%3r	1g	0ee
.	.	0f	.
.	.	.	1dd
=198	=198	=198	=198
1.A	1r	0.e	0ee
.	1r	.	.
2A	.	.	.
2A	[1e	.	1r
2A	.	.	.
=199	=199	=199	=199
0.A	2e]	1r	1.cc
.	2e	.	.
.	2e	1.a	.
.	2e	.	2cc
.	1e	.	2cc
.	.	2a	2cc
=200	=200	=200	=200
1c	1r	2a	1cc
.	.	2a	.
1d	1f	1a	1r
1B	1g	1r	1dd
=201	=201	=201	=201
1c	1e	1g	1ee
1A	1f	1a	1cc
1B	1d	1f	1dd
=202	=202	=202	=202
1G	1e	1g	1b
1A	1c	1e	1cc
1F	1d	1f	1a
=203	=203	=203	=203
1G	1B	1d	1.b
1E	1e	1g	.
.	.	.	2g
1F	1d	1f	2a
.	.	.	2g
=204	=204	=204	=204
1A	1c	1e	0cc
0G	0d	0g	.
.	.	.	1b
=205	=205	=205	=205
*M2/1	*M2/1	*M2/1	*M2/1
*met(C|)	*met(C|)	*met(C|)	*met(C|)
0C	0c	1.e	2cc
.	.	.	1ee
.	.	2f	4dd
.	.	.	4cc
=206	=206	=206	=206
0G;	0d;	0g;	0b;
=207	=207	=207	=207
00Cl	00cl	00gl	00ccl
==	==	==	==
*-	*-	*-	*-
!!!system-decoration: [*]
!!!RDF**kern: i = editorial accidental
!!!RDF**kern: l = terminal long
!!!ENC: Benjamin Ory
!!!END: 2024/6/3
!!!EED: Benjamin Ory
!!!EEV: 2024/06/03
!!!YEC: Copyright 2024 Benjamin Ory, All Rights Reserved
!!!ONB: Translated from MusicXML on 2024/06/03
